X: 335
T: A Redl
R: barndance
M: 4/4
K: Ddorian
|:Ad^cd efed|a2a2 e2e/f/g|a2a2 e2e/f/g|f2ed e^f/e/ d^c|d2a2 f2d2|
Ad^cd efed|a2a2 e2e/f/g|a2a2 e2e/f/g|f2ed e^f/e/ d^c|1 d3d d3A:|2 d2d^c defa||
|:g2g g2 gfe|g2g g2 gfe|ga/g/ fg/f/ ef/e/ de/d/|^c2^cB ^cdef|ga/g/ fg/f/ ef/e/ de/d/|
^c2^cB ^cdef|ga/g/ fg/f/ ef/e/ de|1 f2ed e2d^c|d2d^c defa:|2 fAdf eA^ce|d2d^c defg||
|:a2a a2 aaa|a2a a2 aaa|^gabc' d'c'ba|bc'/b/ a2 bc'/b/ ab/a/|^gabc' d'c'ba|
bc'/b/ a2 bc'/b/ ab/a/|^gabc' bagf|ef^ga gfed|fg/f/ ed ef/e/ d^c|1 d2 d^c defg:|2 d2d^c d3A||

